X: 10053
T: LAUFMAN'S HORNPIPE
C: Bob McQuillen 3 Nov 93
B: Bob's Note Book 10 #53
%R: hornpipe, reel
Z: 2020 John Chambers <jc:trillian.mit.edu>
M: C
L: 1/8
K: G
DE \
| "G"G2GE "C"DEGA | "G"BGAG "C"E2DE | "G"G2GE "Em"DEGA | "Am"BAGB "D"d2Bd |\
| "Em"e2ed Bdeg | e2ed BGEG | "G"DEGB "C"AGED | "D7"E2F2 "G"G2 :|
|: DE \
| "G"GBde "C"g2ge | "G"d2d2 "C"edBd | "G"g2g2 "C"edBG | "G"BdBG "D7"A2Bd |\
| "Em"e2eg edBd | e2eg edBd | "C"e2ge "D7"dBed | "G"B2G2 G2 :|
%%begintext align
%% If you browse around through
%% these little books you will find Dudley Laufman's name mentioned
%% several times, for one rason or another, but until now, there's
%% never been a tune titled just for him, with his name on it. Well,
%% there is now, Dudley, and I hope you like it well enough to play it
%% on your fiddle when the mood strikes. Perhaps you can get
%% your nice Jacqueline to give you a hand with it! Anyway, it comes to
%% you with very best wishes always to a greaty valued friend of many
%% happy years.
%%endtext

%%sep 1 1 500

%%sep 1 1 500

